packages/design-system/src/icons/assets/ic_toast_info_24.svg

<svg xmlns="http://www.w3.org/2000/svg" width="24" height="24" fill="none"><g clip-path="url(#a)"><path fill="#E9FFAC" d="M11.2 8h1.6v1.6h-1.6zm.8 8c.44 0 .8-.36.8-.8V12c0-.44-.36-.8-.8-.8s-.8.36-.8.8v3.2c0 .44.36.8.8.8m0-12c-4.416 0-8 3.584-8 8s3.584 8 8 8 8-3.584 8-8-3.584-8-8-8m0 14.4A6.41 6.41 0 0 1 5.6 12c0-3.528 2.872-6.4 6.4-6.4s6.4 2.872 6.4 6.4-2.872 6.4-6.4 6.4"/></g><defs><clipPath id="a"><path fill="#fff" d="M0 0h24v24H0z"/></clipPath></defs></svg>

<svg width="24" height="24" viewBox="0 0 24 24" fill="none" xmlns="http://www.w3.org/2000/svg">
<g clip-path="url(#clip0_1443_6730)">
<path d="M11.2 8H12.8V9.6H11.2V8ZM12 16C12.44 16 12.8 15.64 12.8 15.2V12C12.8 11.56 12.44 11.2 12 11.2C11.56 11.2 11.2 11.56 11.2 12V15.2C11.2 15.64 11.56 16 12 16ZM12 4C7.584 4 4 7.584 4 12C4 16.416 7.584 20 12 20C16.416 20 20 16.416 20 12C20 7.584 16.416 4 12 4ZM12 18.4C8.472 18.4 5.6 15.528 5.6 12C5.6 8.472 8.472 5.6 12 5.6C15.528 5.6 18.4 8.472 18.4 12C18.4 15.528 15.528 18.4 12 18.4Z" fill="#E9FFAC"/>
</g>
<defs>
<clipPath id="clip0_1443_6730">
<rect width="24" height="24" fill="white"/>
</clipPath>
</defs>
</svg>
